X:194
T:Beneath The Cross Of Jesus
%%stretchlast false
M:4/4
L:1/4
K:C clef=C1
"^I"[C,G,EG] [C,G,EG]3/2 [C,G,EG]/ "^i°7"[C,A,^D^F] | [C,^F,^DA] "^I"[C,G,EG]2 [C,G,CE] | "^I¹"[E,G,C] "^V7³"[F,G,B,D]3/2 "^I¹"[E,G,CE]/ "^ii7"[D,A,CF] | "^V7"[G,,G,B,F] "^I"[C,G,CE]3 | "^III7²"[B,,^G,DE] "^vi"[A,,A,Cc]3/2 [A,,A,Cc]/ [A,,A,Cc] | "^♭vi°¹"[B,,^G,DB] "^vi¹"[C,A,EA] "^VI7¹"[^C,A,EG] "^ii"[D,A,DF] | "^vi²"[E,A,CE] "^ii7¹"[F,A,CD]3/2 [F,A,CD]/ "^IV7"[F,A,C^D] | "^ii¹"[F,A,D] "^III"[E,^G,B,E]3 | "^I"[C,G,CE] [C,G,CE]3/2 "^vii°7³"[C,F,B,D]/ "^I"[C,E,C] | "^ii7³"[C,F,CD] "^I"[C,G,CE] "^IV²"[C,A,CF] "^i"[C,^A,CG] | "^Imaj7¹"[E,B,CG] "^IV"[F,A,CA]3/2 [F,A,CA]/ "^VI²"[E,A,^CA] | "^V/ii"[A,,A,^CE] "^ii"[D,A,DF]3 | [D,A,DF]/ [D,A,DF]/ "^V7"[G,,DFB]3/2 "^IV"[G,,CFA]/ "^V7"[G,,B,FG] | [G,,G,B,F] "^I"[C,G,CE] [C,G,CE] "^V/IV¹"[E,,^A,CG] | "^IV"[F,,A,CF]/ [F,,A,CF]/ "^I²"[G,,G,CE]3/2 [G,,E,C]/ "^iii¹"[G,,G,B,E] | "^V7"[G,,F,B,D] "^I"[C,E,C]3 |]
